!!!!SEGMENT: pl-wtm--r-1227--012_lodwigowski-edward-stefan--gospodarzu-kto-u-ciebie-bywa.krn
!!!cenid: 18xx:1952
!!!COM: Åodwigowski, Edward Stefan
!!!COM-rismID: pe30111147
!!!CDT: 1815/08/14-1895/11/12
!!!CNT: Polish
!!!OTL: Gospodarzu kto u ciebie bywa
!!!PDT:
!!!AGN:
!!!SMS-siglum: PL-Wtm
!!!SMS-shelfmark: R 1227
!!!SMS-shelfwork: 012 W
!!!SMS-variant:
!!!SMS-altvar:
!!!NIFC-rismSourceID: 1001084046
!!!NIFC-rismChildID: 1001084046
!!!NIFC-islandoraID:
!!!URL-pdf-islandora:
!!!URL-scan:
!!!ONB-nifc: UWAGA: No. 84
!!!OMD: No 84. Tempo di Mazur
!!!AIN: 1 forte
!!!key:
**kern	**fing	**kern	**fing	**dynam
*part1	*	*part1	*	*part1
*staff2	*	*staff1	*	*
*Iforte	*	*Iforte	*	*
*I"Fortepian	*	*I"Fortepian	*	*
*clefF4	*	*clefG2	*	*
*k[b-]	*	*k[b-]	*	*
*F:	*	*F:	*	*
*M3/8	*	*M3/8	*	*
*>[A,A,B,B]	*>[A,A,B,B]	*>[A,A,B,B]	*>[A,A,B,B]	*>[A,A,B,B]
=1	=1	=1	=1	=1
*>A	*>A	*>A	*>A	*>A
*all\right	*	*all\right	*	*
*^	*	*	*	*
*	*	*below	*	*	*
!	!	!	!LO:TX:a:i:t=Gospodarzu, Gospodarzu, kto u ciebie bywa P.L.P.	!	!
8F\L	4.F/	4	(16ff\LL	3	mf
.	.	.	16cc\JJ	.	.
8c 8A\	.	.	8ff\L	.	.
8cJ 8A\	.	.	8aa\J	.	.
=2	=2	=2	=2	=2	=2
8F\L	4.F/	.	16ff\LL	.	.
.	.	.	16cc\JJ	.	.
8c 8A\	.	.	8ff\L	.	.
8cJ 8A\	.	.	8aa\J)	.	.
=3	=3	=3	=3	=3	=3
8C\L	4C/	.	(16aa\LL	3	.
.	.	.	16bb-\JJ	.	.
8B- 8E\	.	.	8.gg\L	.	.
8B-J 8G\	8ryy	.	.	.	.
.	.	.	16ee\Jk	.	.
=4	=4	=4	=4	=4	=4
8F\L	4F/	.	16gg\LL	3	.
.	.	.	16ff\JJ	.	.
8c 8A\	.	.	8ff\)	.	.
8cJ 8A\	8ryy	.	8r	.	.
=5:|!|:	=5:|!|:	=5:|!|:	=5:|!|:	=5:|!|:	=5:|!|:
*>B	*>B	*>B	*>B	*>B	*>B
8C\L	4.C/	.	8ccc: 8gg: 8ee:\|	.	f
8B- 8G 8E\	.	.	(8.bb-L 8.gg^\	.	.
8B-J 8G 8E\	.	.	.	.	.
.	.	.	16ggJk 16ee\)	.	.
=6	=6	=6	=6	=6	=6
8F\L	4.F/	.	(16bb-LL 16gg\	.	.
.	.	.	16aaJJ 16ff\)	.	.
8c 8A\	.	.	4aa 4ff\	.	.
8cJ 8A\	.	.	.	.	.
!!LO:LB:g=original
=7	=7	=7	=7	=7	=7
8C\L	4.C/	.	16.cccLL 16.ee\	.	.
.	.	.	32cccJJk 32ee\	.	.
8B- 8G 8E\	.	.	(8.bb-L 8.gg\	.	.
8B-J 8G 8E\	.	.	.	.	.
.	.	.	16ggJk 16ee\)	.	.
=8	=8	=8	=8	=8	=8
8F\L	4.F/	.	(16bb-LL 16gg\	.	.
.	.	.	16aaJJ 16ff\)	.	.
8c 8A\	.	.	4aa 4ff\	.	.
8cJ 8A\	.	.	.	.	.
=9	=9	=9	=9	=9	=9
8AA\L	4.AA/	.	16.ffLL 16.cc\	1 3	<
.	.	.	32ffJJk 32cc\	.	.
*	*	*above	*	*	*
8F\	.	1	8ffL 8cc'\	.	.
8E-X\J	.	2	8ff#XJ 8cc'\	4	[
*v	*v	*	*	*	*
=10	=10	=10	=10	=10
8D 8BB-\|	1	8gg 8dd\|	.	.
4D 4GG^>/	.	4bb- 4dd^\	4	sf
=11	=11	=11	=11	=11
*^	*	*	*	*
8C\L	4.C/	.	16aaLL 16ee\	3	.
.	.	.	16gg\JJ	.	.
8B- 8G\	.	.	(8.cccL 8.ee^\	.	.
8B-J 8G\	.	.	.	.	.
.	.	.	16ee\Jk)	.	.
=12	=12	=12	=12	=12	=12
8F\L	4F/	.	(16gg\LL	3	.
.	.	.	16ff\JJ)	.	.
8cJ 8A\	.	.	8ff\	.	.
8r	8ryy	.	8r	.	.
*v	*v	*	*	*	*
=:|!	=:|!	=:|!	=:|!	=:|!
*-	*-	*-	*-	*-
!!!system-decoration: {s1,s2}
!!!RDF**kern: > = above
!!!RDF**kern: | = vertical stroke
!!!ENC: Marta Lawrence
!!!END: 2021-05-02
!!!ENC: Anastazja Marusiak
!!!END: 2021-04-19
!!!YEC: Copyright 2022 Narodowy Instytut Fryderyka Chopina (https://polishscores.org)
!!!YEM: License CC-BY-4.0 (https://creativecommons.org/licenses/by/4.0)
